static/img/kroki/c6009f9180aa89add37d3f4750d27f91.svg

<?xml version="1.0" encoding="us-ascii" standalone="no"?><svg xmlns="http://www.w3.org/2000/svg" xmlns:xlink="http://www.w3.org/1999/xlink" contentStyleType="text/css" height="374px" preserveAspectRatio="none" style="width:351px;height:374px;" version="1.1" viewBox="0 0 351 374" width="351px" zoomAndPan="magnify"><defs/><g><!--class gcp_health_check--><g id="elem_gcp_health_check"><rect codeLine="23" fill="#3D176E" height="39.7891" id="gcp_health_check" rx="2.5" ry="2.5" style="stroke:#000D19;stroke-width:0.5;" width="189" x="79.5" y="328.58"/><ellipse cx="94.5" cy="348.4745" fill="#ADD1B2" rx="11" ry="11" style="stroke:#181818;stroke-width:1.0;"/><path d="M97.4688,354.1152 Q96.8906,354.412 96.25,354.5527 Q95.6094,354.7089 94.9063,354.7089 Q92.4063,354.7089 91.0781,353.0683 Q89.7656,351.412 89.7656,348.287 Q89.7656,345.162 91.0781,343.5058 Q92.4063,341.8495 94.9063,341.8495 Q95.6094,341.8495 96.25,342.0058 Q96.9063,342.162 97.4688,342.4589 L97.4688,345.1777 Q96.8438,344.5995 96.25,344.3339 Q95.6563,344.0527 95.0313,344.0527 Q93.6875,344.0527 93,345.1308 Q92.3125,346.1933 92.3125,348.287 Q92.3125,350.3808 93,351.4589 Q93.6875,352.5214 95.0313,352.5214 Q95.6563,352.5214 96.25,352.2558 Q96.8438,351.9745 97.4688,351.3964 L97.4688,354.1152 Z " fill="#000000"/><text fill="#D9B8FF" font-family="Helvetica" font-size="17" lengthAdjust="spacing" textLength="147" x="113.5" y="354.3598">gcp_health_check</text></g><!--class gcp_resource--><g id="elem_gcp_resource"><rect codeLine="26" fill="#3D176E" height="39.7891" id="gcp_resource" rx="2.5" ry="2.5" style="stroke:#000D19;stroke-width:0.5;" width="150" x="7" y="167.79"/><ellipse cx="22" cy="187.6845" fill="#ADD1B2" rx="11" ry="11" style="stroke:#181818;stroke-width:1.0;"/><path d="M24.9688,193.3252 Q24.3906,193.622 23.75,193.7627 Q23.1094,193.9189 22.4063,193.9189 Q19.9063,193.9189 18.5781,192.2783 Q17.2656,190.622 17.2656,187.497 Q17.2656,184.372 18.5781,182.7158 Q19.9063,181.0595 22.4063,181.0595 Q23.1094,181.0595 23.75,181.2158 Q24.4063,181.372 24.9688,181.6689 L24.9688,184.3877 Q24.3438,183.8095 23.75,183.5439 Q23.1563,183.2627 22.5313,183.2627 Q21.1875,183.2627 20.5,184.3408 Q19.8125,185.4033 19.8125,187.497 Q19.8125,189.5908 20.5,190.6689 Q21.1875,191.7314 22.5313,191.7314 Q23.1563,191.7314 23.75,191.4658 Q24.3438,191.1845 24.9688,190.6064 L24.9688,193.3252 Z " fill="#000000"/><text fill="#D9B8FF" font-family="Helvetica" font-size="17" lengthAdjust="spacing" textLength="108" x="41" y="193.5698">gcp_resource</text></g><!--class health_check--><g id="elem_health_check"><rect codeLine="29" fill="#3D176E" height="39.7891" id="health_check" rx="2.5" ry="2.5" style="stroke:#000D19;stroke-width:0.5;" width="152" x="192" y="167.79"/><ellipse cx="207" cy="187.6845" fill="#ADD1B2" rx="11" ry="11" style="stroke:#181818;stroke-width:1.0;"/><path d="M209.9688,193.3252 Q209.3906,193.622 208.75,193.7627 Q208.1094,193.9189 207.4063,193.9189 Q204.9063,193.9189 203.5781,192.2783 Q202.2656,190.622 202.2656,187.497 Q202.2656,184.372 203.5781,182.7158 Q204.9063,181.0595 207.4063,181.0595 Q208.1094,181.0595 208.75,181.2158 Q209.4063,181.372 209.9688,181.6689 L209.9688,184.3877 Q209.3438,183.8095 208.75,183.5439 Q208.1563,183.2627 207.5313,183.2627 Q206.1875,183.2627 205.5,184.3408 Q204.8125,185.4033 204.8125,187.497 Q204.8125,189.5908 205.5,190.6689 Q206.1875,191.7314 207.5313,191.7314 Q208.1563,191.7314 208.75,191.4658 Q209.3438,191.1845 209.9688,190.6064 L209.9688,193.3252 Z " fill="#000000"/><text fill="#D9B8FF" font-family="Helvetica" font-size="17" lengthAdjust="spacing" textLength="110" x="226" y="193.5698">health_check</text></g><!--class resource--><g id="elem_resource"><rect codeLine="32" fill="#3D176E" height="39.7891" id="resource" rx="2.5" ry="2.5" style="stroke:#000D19;stroke-width:0.5;" width="113" x="117.5" y="7"/><ellipse cx="132.5" cy="26.8945" fill="#ADD1B2" rx="11" ry="11" style="stroke:#181818;stroke-width:1.0;"/><path d="M135.4688,32.5352 Q134.8906,32.832 134.25,32.9727 Q133.6094,33.1289 132.9063,33.1289 Q130.4063,33.1289 129.0781,31.4883 Q127.7656,29.832 127.7656,26.707 Q127.7656,23.582 129.0781,21.9258 Q130.4063,20.2695 132.9063,20.2695 Q133.6094,20.2695 134.25,20.4258 Q134.9063,20.582 135.4688,20.8789 L135.4688,23.5977 Q134.8438,23.0195 134.25,22.7539 Q133.6563,22.4727 133.0313,22.4727 Q131.6875,22.4727 131,23.5508 Q130.3125,24.6133 130.3125,26.707 Q130.3125,28.8008 131,29.8789 Q131.6875,30.9414 133.0313,30.9414 Q133.6563,30.9414 134.25,30.6758 Q134.8438,30.3945 135.4688,29.8164 L135.4688,32.5352 Z " fill="#000000"/><text fill="#D9B8FF" font-family="Helvetica" font-size="17" lengthAdjust="spacing" textLength="71" x="151.5" y="32.7798">resource</text></g><!--reverse link gcp_resource to gcp_health_check--><g id="link_gcp_resource_gcp_health_check"><path codeLine="35" d="M102.1227,223.4153 C119.8027,253.9353 145.16,297.69 162.86,328.25 " fill="none" id="gcp_resource-backto-gcp_health_check" style="stroke:#FFAF37;stroke-width:2.0;"/><polygon fill="none" points="93.1,207.84,96.9309,226.4229,107.3145,220.4078,93.1,207.84" style="stroke:#FFAF37;stroke-width:2.0;"/></g><!--reverse link health_check to gcp_health_check--><g id="link_health_check_gcp_health_check"><path codeLine="36" d="M247.4895,223.3288 C229.4195,253.8488 203.47,297.69 185.38,328.25 " fill="none" id="health_check-backto-gcp_health_check" style="stroke:#FFAF37;stroke-width:2.0;"/><polygon fill="none" points="256.66,207.84,242.3266,220.272,252.6525,226.3856,256.66,207.84" style="stroke:#FFAF37;stroke-width:2.0;"/></g><!--reverse link resource to gcp_resource--><g id="link_resource_gcp_resource"><path codeLine="37" d="M153.8773,62.6253 C136.1973,93.1453 110.84,136.9 93.14,167.46 " fill="none" id="resource-backto-gcp_resource" style="stroke:#FFAF37;stroke-width:2.0;"/><polygon fill="none" points="162.9,47.05,148.6855,59.6178,159.0691,65.6329,162.9,47.05" style="stroke:#FFAF37;stroke-width:2.0;"/></g><!--reverse link resource to health_check--><g id="link_resource_health_check"><path codeLine="38" d="M194.5105,62.5388 C212.5805,93.0588 238.53,136.9 256.62,167.46 " fill="none" id="resource-backto-health_check" style="stroke:#FFAF37;stroke-width:2.0;"/><polygon fill="none" points="185.34,47.05,189.3475,65.5956,199.6734,59.482,185.34,47.05" style="stroke:#FFAF37;stroke-width:2.0;"/></g><!--SRC=[XP3DJiCm48JlUGfBFKTAg22DnAMDXE1I8SgzSknrRIMnexL3LNxU7K8fSkAclSvyEpkxKd4WqBJkG1feIa0RsKhfbY9jo1BHx0jJ6oGp8QYOPsFpmMXt5LZJ1iWZr6_W5ADZubKgLccmbjnuregoQeUcq_mOxv1g-sE1TXvLrDJQfNEeoiw1LuRdvKA8CJaEdSrvcjr1W1daW7z8aYGypSV8rLKNx_udDkeTIEe_RMqS13M35R_KnPOzuPKC3ZtvansVAUTAxyYjfxqSEw467EWRIRdPzxIWjVNNM0S8nXrQA8Ah85zmaPs5dwRWYFMl8plMRYNGsiajay0gyX55Nvw7O4s737nzYX-oW-dxppYEWsNH86c2EPDnaiRUOEuR]--></g></svg>

<svg xmlns="http://www.w3.org/2000/svg" width="351" height="374" viewBox="0 0 351 374"><rect width="189" height="39.789" x="79.5" y="328.58" fill="#3D176E" rx="2.5" ry="2.5" style="stroke:#000d19;stroke-width:.5"/><circle cx="94.5" cy="348.474" r="11" fill="#ADD1B2" style="stroke:#181818;stroke-width:1"/><path d="M97.469 354.115q-.578.297-1.219.438-.64.156-1.344.156-2.5 0-3.828-1.64-1.312-1.657-1.312-4.782t1.312-4.781q1.328-1.656 3.828-1.656.703 0 1.344.156.656.156 1.219.453v2.719q-.625-.579-1.219-.844-.594-.281-1.219-.281-1.344 0-2.031 1.078-.687 1.062-.687 3.156t.687 3.172q.688 1.062 2.031 1.062.625 0 1.219-.265.594-.281 1.219-.86z"/><text x="113.5" y="354.36" fill="#D9B8FF" font-family="Helvetica" font-size="17" textLength="147">gcp_health_check</text><rect width="150" height="39.789" x="7" y="167.79" fill="#3D176E" rx="2.5" ry="2.5" style="stroke:#000d19;stroke-width:.5"/><circle cx="22" cy="187.685" r="11" fill="#ADD1B2" style="stroke:#181818;stroke-width:1"/><path d="M24.969 193.325q-.578.297-1.219.438-.64.156-1.344.156-2.5 0-3.828-1.64-1.312-1.657-1.312-4.782t1.312-4.781q1.328-1.656 3.828-1.656.703 0 1.344.156.656.156 1.219.453v2.719q-.625-.578-1.219-.844-.594-.281-1.219-.281-1.343 0-2.031 1.078-.687 1.062-.687 3.156t.687 3.172q.688 1.062 2.031 1.062.625 0 1.219-.265.594-.281 1.219-.86z"/><text x="41" y="193.57" fill="#D9B8FF" font-family="Helvetica" font-size="17" textLength="108">gcp_resource</text><rect width="152" height="39.789" x="192" y="167.79" fill="#3D176E" rx="2.5" ry="2.5" style="stroke:#000d19;stroke-width:.5"/><circle cx="207" cy="187.685" r="11" fill="#ADD1B2" style="stroke:#181818;stroke-width:1"/><path d="M209.969 193.325q-.578.297-1.219.438-.64.156-1.344.156-2.5 0-3.828-1.64-1.312-1.657-1.312-4.782t1.312-4.781q1.328-1.656 3.828-1.656.703 0 1.344.156.656.156 1.219.453v2.719q-.625-.578-1.219-.844-.594-.281-1.219-.281-1.344 0-2.031 1.078-.687 1.062-.687 3.156t.687 3.172q.688 1.062 2.031 1.062.625 0 1.219-.265.594-.281 1.219-.86z"/><text x="226" y="193.57" fill="#D9B8FF" font-family="Helvetica" font-size="17" textLength="110">health_check</text><rect width="113" height="39.789" x="117.5" y="7" fill="#3D176E" rx="2.5" ry="2.5" style="stroke:#000d19;stroke-width:.5"/><circle cx="132.5" cy="26.895" r="11" fill="#ADD1B2" style="stroke:#181818;stroke-width:1"/><path d="M135.469 32.535q-.578.297-1.219.438-.64.156-1.344.156-2.5 0-3.828-1.64-1.312-1.657-1.312-4.782t1.312-4.781q1.328-1.656 3.828-1.656.703 0 1.344.156.656.156 1.219.453v2.719q-.625-.578-1.219-.844-.594-.281-1.219-.281-1.344 0-2.031 1.078-.687 1.062-.687 3.156t.687 3.172q.688 1.062 2.031 1.062.625 0 1.219-.265.594-.281 1.219-.86z"/><text x="151.5" y="32.78" fill="#D9B8FF" font-family="Helvetica" font-size="17" textLength="71">resource</text><path fill="none" d="M102.123 223.415c17.68 30.52 43.037 74.275 60.737 104.835M93.1 207.84l3.83 18.583 10.384-6.015zm154.39 15.489c-18.07 30.52-44.02 74.361-62.11 104.921m71.28-120.41-14.333 12.432 10.326 6.114z" style="stroke:#ffaf37;stroke-width:2"/><g fill="none"><path d="M153.877 62.625C136.197 93.145 110.84 136.9 93.14 167.46" style="stroke:#ffaf37;stroke-width:2"/><path d="m162.9 47.05-14.215 12.568 10.384 6.015z" style="stroke:#ffaf37;stroke-width:2"/></g><g fill="none"><path d="M194.51 62.539c18.07 30.52 44.02 74.361 62.11 104.921" style="stroke:#ffaf37;stroke-width:2"/><path d="m185.34 47.05 4.007 18.546 10.326-6.114z" style="stroke:#ffaf37;stroke-width:2"/></g></svg>
